svgs/txd_tool.svg

<svg width="192" height="192" viewBox="0 0 192 192" fill="none" xmlns="http://www.w3.org/2000/svg">
<path d="M42 30H150C157 30 162 35 162 42V85L140 64L111 94L80.9999 64L51.9999 94L29.9999 73V42C29.9999 35 34 30 42 30Z" stroke="black" stroke-width="12" stroke-linejoin="round"/>
<path d="M51.9999 128L29.9999 107V150C29.9999 157 35 162 41.9999 162H150C157 162 162 157 162 150L162 119L140 98L111 128L80.9999 98L51.9999 128Z" stroke="black" stroke-width="12" stroke-linejoin="round"/>
</svg>

<svg xmlns="http://www.w3.org/2000/svg" width="192" height="192" fill="none" viewBox="0 0 192 192"><path stroke="#000" stroke-linejoin="round" stroke-width="12" d="M42 30h108c7 0 12 5 12 12v43l-22-21-29 30-30-30-29 30-22-21V42c0-7 4-12 12-12Zm10 98-22-21v43c0 7 5 12 12 12h108c7 0 12-5 12-12v-31l-22-21-29 30-30-30-29 30Z"/></svg>
